src/assets/icons/notes.svg

<svg fill="none" viewBox="0 0 24 24"><path stroke="currentColor" stroke-linejoin="round" stroke-width="1.5" d="M5.906 11.11a6.55 6.55 0 0 1 6.515-5.86c3.618 0 7.051 2.963 7.051 6.581 0 3.651-3.46 6.641-7.611 6.641h-1.098a7.7 7.7 0 0 1-2.515-.421l-.9-.311a.26.26 0 0 0-.242.041L5.25 19.25v-6.671z"/></svg>

<svg width="24" height="24" viewBox="0 0 24 24" fill="none" xmlns="http://www.w3.org/2000/svg">
<path d="M5.906 11.11C6.259 7.778 9.07 5.25 12.421 5.25C16.039 5.25 19.472 8.213 19.472 11.831C19.472 15.482 16.012 18.472 11.861 18.472H10.763C9.907 18.472 9.057 18.33 8.248 18.051L7.348 17.74C7.266 17.712 7.174 17.727 7.106 17.781L5.25 19.25L5.25 12.579L5.906 11.11Z" stroke="#314158" stroke-width="1.5" stroke-linejoin="round"/>
</svg>
